media/icons/block1/Про.svg

<svg width="76" height="76" viewBox="0 0 76 76" fill="none" xmlns="http://www.w3.org/2000/svg">
<path d="M38 47.5C24.0033 47.5 12.6666 53.1683 12.6666 60.1666V66.5H63.3333V60.1666C63.3333 53.1683 51.9966 47.5 38 47.5ZM25.3333 28.5C25.3333 31.8594 26.6678 35.0812 29.0433 37.4567C31.4187 39.8321 34.6405 41.1666 38 41.1666C41.3594 41.1666 44.5812 39.8321 46.9566 37.4567C49.3321 35.0812 50.6666 31.8594 50.6666 28.5M36.4166 6.33331C35.4666 6.33331 34.8333 6.99831 34.8333 7.91665V17.4166H31.6666V9.49998C31.6666 9.49998 24.5416 12.2233 24.5416 21.375C24.5416 21.375 22.1666 21.8183 22.1666 25.3333H53.8333C53.675 21.8183 51.4583 21.375 51.4583 21.375C51.4583 12.2233 44.3333 9.49998 44.3333 9.49998V17.4166H41.1666V7.91665C41.1666 6.99831 40.565 6.33331 39.5833 6.33331H36.4166Z" fill="#378BC5"/>
</svg>

<svg xmlns="http://www.w3.org/2000/svg" width="76" height="76" fill="none" viewBox="0 0 76 76"><path fill="#378bc5" d="M38 47.5c-13.997 0-25.333 5.668-25.333 12.667V66.5h50.666v-6.333C63.333 53.168 51.997 47.5 38 47.5m-12.667-19a12.667 12.667 0 1 0 25.334 0M36.417 6.333c-.95 0-1.584.665-1.584 1.584v9.5h-3.166V9.5s-7.125 2.723-7.125 11.875c0 0-2.375.443-2.375 3.958h31.666c-.158-3.515-2.375-3.958-2.375-3.958 0-9.152-7.125-11.875-7.125-11.875v7.917h-3.166v-9.5c0-.919-.602-1.584-1.584-1.584z"/></svg>
